src/assets/statics/2_Home_Online_Training-Instagram_Fill.svg

<svg xmlns="http://www.w3.org/2000/svg" id="aaf4d88f-6908-42b9-b3d6-5d6a3ec06a43" data-name="Layer 1" width="27" height="26" viewBox="0 0 27 26"><path d="M26.9922,13.12c0-1.952.0071-3.904-.0054-5.856a7.4912,7.4912,0,0,0-.12-1.3338,6.9762,6.9762,0,0,0-2.4989-4.1911,7.3149,7.3149,0,0,0-4.73-1.7279c-4.031-.02-8.0623-.0061-12.0935-.0071a7.347,7.347,0,0,0-3.6653.907,6.9367,6.9367,0,0,0-3.85,6.2265C-.025,11.0332.0121,14.93.0169,18.8272a6.5069,6.5069,0,0,0,.8908,3.3475A7.2785,7.2785,0,0,0,7.419,25.9708c4.0565.0558,8.1145.0148,12.1719.0131a7.6378,7.6378,0,0,0,4.9015-1.8408,6.9218,6.9218,0,0,0,2.4928-5.276C27.0143,16.9517,26.9915,15.0354,26.9922,13.12ZM13.4174,20.21a7.3625,7.3625,0,0,1-7.4061-7.2182,7.3505,7.3505,0,0,1,7.4992-7.2115,7.3516,7.3516,0,0,1,7.4852,7.2146A7.37,7.37,0,0,1,13.4174,20.21ZM22.4962,5.7791a1.48,1.48,0,0,1-1.5005-1.4476,1.5014,1.5014,0,0,1,3-.0009A1.481,1.481,0,0,1,22.4962,5.7791Z" transform="translate(0 0)" style="fill-rule:evenodd"></path><path d="M13.4969,8.3571a4.7331,4.7331,0,0,0-4.8183,4.6445,4.74,4.74,0,0,0,4.8241,4.6413,4.74,4.74,0,0,0,4.8187-4.6466A4.7342,4.7342,0,0,0,13.4969,8.3571Z" transform="translate(0 0)" style="fill-rule:evenodd"></path></svg>

<svg xmlns="http://www.w3.org/2000/svg" data-name="Layer 1" width="27" height="26"><path d="M26.992 13.12c0-1.952.007-3.904-.005-5.856a7.491 7.491 0 0 0-.12-1.334 6.976 6.976 0 0 0-2.5-4.19A7.315 7.315 0 0 0 19.638.01c-4.03-.02-8.061-.006-12.093-.007A7.347 7.347 0 0 0 3.88.911 6.937 6.937 0 0 0 .03 7.138c-.054 3.895-.017 7.792-.012 11.69a6.507 6.507 0 0 0 .89 3.347A7.279 7.279 0 0 0 7.42 25.97c4.056.056 8.114.015 12.172.013a7.638 7.638 0 0 0 4.901-1.84 6.922 6.922 0 0 0 2.493-5.277c.03-1.915.006-3.832.007-5.747Zm-13.575 7.09a7.362 7.362 0 0 1-7.406-7.218 7.35 7.35 0 0 1 7.5-7.212 7.352 7.352 0 0 1 7.485 7.215 7.37 7.37 0 0 1-7.579 7.215Zm9.08-14.43a1.48 1.48 0 0 1-1.501-1.449 1.501 1.501 0 0 1 3 0 1.481 1.481 0 0 1-1.5 1.448Z" style="fill-rule:evenodd"/><path d="M13.497 8.357a4.733 4.733 0 0 0-4.818 4.645 4.74 4.74 0 0 0 4.824 4.64 4.74 4.74 0 0 0 4.818-4.646 4.734 4.734 0 0 0-4.824-4.639Z" style="fill-rule:evenodd"/></svg>
